Suru++-Ubuntu/apps/scalable/fuse-emulator.svg

<svg width="256" height="256" version="1.1" viewBox="0 0 67.73 67.73" xmlns="http://www.w3.org/2000/svg" xmlns:xlink="http://www.w3.org/1999/xlink">
 <defs>
  <clipPath id="clipPath1082-3-5">
   <path d="M 361.9375,-212 C 507.2348,-212 528,-191.28677 528,-46.125 V 70.125 C 528,215.28618 507.2348,236 361.9375,236 H 214.0625 C 68.7652,236 48,215.28618 48,70.125 V -46.125 C 48,-191.28677 68.7652,-212 214.0625,-212 Z" style="fill:#8c59d9"/>
  </clipPath>
  <filter id="filter4569-2" x="-.01" y="-.01" width="1.023" height="1.025" style="color-interpolation-filters:sRGB">
   <feGaussianBlur stdDeviation="1.16"/>
  </filter>
  <filter id="filter913" x="-.02" y="-.03" width="1.046" height="1.05" style="color-interpolation-filters:sRGB">
   <feGaussianBlur stdDeviation="2.32"/>
  </filter>
  <linearGradient id="linearGradient906" x1="296" x2="296" y1="-212" y2="236" gradientUnits="userSpaceOnUse">
   <stop style="stop-color:#ffffff" offset="0"/>
   <stop style="stop-color:#ffffff;stop-opacity:.09803922" offset=".125"/>
   <stop style="stop-color:#000000;stop-opacity:.09803922" offset=".925"/>
   <stop style="stop-color:#000000;stop-opacity:.49803922" offset="1"/>
  </linearGradient>
 </defs>
 <g transform="translate(0,-229.26666)">
  <path transform="matrix(.26970778 0 0 .26970778 -7.1289177 220.56049)" d="m188.96876 45.999995c72.64865 0 83.03125 10.356615 83.03125 82.937505v58.125c0 72.58059-10.3826 82.9375-83.03125 82.9375h-73.9375c-72.648654 0-83.031254-10.35691-83.031254-82.9375v-58.125c0-72.58089 10.3826-82.937505 83.031254-82.937505z" style="filter:url(#filter913);opacity:.2"/>
  <path transform="matrix(.26970778 0 0 .26970778 -7.1289177 220.56049)" d="m188.96876 43.999995c72.64865 0 83.03125 10.356615 83.03125 82.937505v58.125c0 72.58059-10.3826 82.9375-83.03125 82.9375h-73.9375c-72.648654 0-83.031254-10.35691-83.031254-82.9375v-58.125c0-72.58089 10.3826-82.937505 83.031254-82.937505z" style="filter:url(#filter4569-2);opacity:.1"/>
  <path d="m23.895905 232.42763c-9.797337 0-15.39413 0.69699-18.544517 3.84334-3.150381 3.14634-3.849657 8.73736-3.849657 18.52555v15.67677c0 9.78815 0.699276 15.3792 3.849657 18.52555 3.150387 3.14636 8.7471787 3.84333 18.544517 3.84333h19.94152c9.797339 0 15.394134-0.69697 18.544517-3.84333 3.150384-3.14635 3.849659-8.7374 3.849659-18.52555v-15.67677c0-9.78819-0.699275-15.37921-3.849659-18.52555-3.150383-3.14635-8.74718-3.84334-18.544517-3.84334z" style="fill:#4f4f4f"/>
  <path d="m1.5017313 269.93387v0.53942c0 9.78815 0.699276 15.3792 3.849657 18.52555 3.150387 3.14636 8.7471787 3.84333 18.544517 3.84333h19.94152c9.797339 0 15.394134-0.69697 18.544517-3.84333 3.150384-3.14635 3.849659-8.7374 3.849659-18.52555v-0.53942c0 9.78815-0.699275 15.3792-3.849659 18.52555-3.150383 3.14636-8.747178 3.84334-18.544517 3.84334h-19.94152c-9.797338 0-15.39413-0.69698-18.544517-3.84334-3.150381-3.14635-3.849657-8.7374-3.849657-18.52555z" style="fill:#131313;opacity:.2"/>
  <g transform="translate(-2.6171876e-7 .23804265)">
   <path d="m41.974217 232.17708h-12.87005l-26.831293 51.09553c0.08347 0.34931 0.153825 0.72414 0.250735 1.04914 0.195683 0.65628 0.419444 1.26397 0.674856 1.82627 0.255412 0.56231 0.542332 1.07905 0.864342 1.55425 0.322 0.4752 0.67912 0.90857 1.074578 1.30351 0.395457 0.39495 0.829293 0.75146 1.305067 1.07302 0.475784 0.32158 0.993366 0.60826 1.556325 0.86331 0.56296 0.25504 1.171338 0.47843 1.828352 0.67381 0.6570042 0.19539 1.3626852 0.36304 2.1206022 0.50562 0.757928 0.14259 1.567942 0.26051 2.433646 0.35716 0.1546 0.0173 0.33604 0.025 0.49421 0.0409l31.63107-60.23359c-1.42486-0.0556-2.89097-0.10007-4.53244-0.10901z" style="fill:#f0f0f0;opacity:.2"/>
   <path d="m66.203797 254.26696c-5e-3 -2.27556-0.0412-4.36493-0.14951-6.20247-0.0576-0.97936-0.13315-1.89952-0.22997-2.76432-0.0968-0.8648-0.21485-1.67393-0.35767-2.43104s-0.31045-1.46225-0.50615-2.11853c-0.19568-0.65628-0.41944-1.26396-0.67485-1.82627s-0.54233-1.07906-0.86433-1.55425c-0.322-0.4752-0.67912-0.90856-1.07459-1.30352-0.39546-0.39494-0.82929-0.75146-1.30507-1.07301-0.47577-0.32158-0.99336-0.60827-1.55632-0.86331s-1.17134-0.47843-1.82835-0.67382c-0.65701-0.19538-1.36269-0.36303-2.12061-0.50562-0.75792-0.14258-1.56794-0.26051-2.43364-0.35715-0.86569-0.0966-1.7871-0.17189-2.76744-0.22946-1.12997-0.0664-2.52186-0.0671-3.81397-0.0913l-31.55789 60.28917c0.67842 0.0658 1.35834 0.13066 2.10348 0.17442 1.96067 0.11513 4.15734 0.15885 6.61775 0.15885h20.03288c2.46041 0 4.65709-0.0437 6.61775-0.15885 0.98034-0.0575 1.90175-0.13281 2.76744-0.22946 0.8657-0.0967 1.67572-0.21457 2.43364-0.35715 0.75792-0.14259 1.4636-0.31024 2.12061-0.50563 0.65701-0.19537 1.26539-0.41877 1.82835-0.67381 0.56296-0.25505 1.08055-0.54173 1.55632-0.86331 0.47578-0.32155 0.90961-0.67807 1.30507-1.07302 0.39547-0.39494 0.75259-0.82831 1.07459-1.3035 0.322-0.4752 0.60892-0.99194 0.86433-1.55426 0.25541-0.5623 0.47917-1.16999 0.67485-1.82626 0.1957-0.65629 0.36333-1.36142 0.50615-2.11854 0.14282-0.75711 0.26085-1.56624 0.35767-2.43104 0.0968-0.86481 0.17229-1.78497 0.22997-2.76432 0.10824-1.83753 0.14431-3.92692 0.14951-6.20247z" style="fill:#ffffff;opacity:.1"/>
  </g>
  <path transform="matrix(.26458333 0 0 .26458333 0 229.26666)" d="m241.35156 34.136719c-0.51407-0.914316-0.96189-1.914783-1.5332-2.757813-1.2118-1.788138-2.55655-3.41979-4.04492-4.90625-1.48837-1.486464-3.11989-2.827003-4.91016-4.037109-1.79026-1.210106-3.73936-2.290381-5.85742-3.25s-4.40521-1.800153-6.87695-2.535156c-2.00832-0.597198-4.22512-1.080531-6.48243-1.544922l-118.125 225.17969h39.687496l108.14258-206.14844z" style="fill:#f24c3d"/>
  <path transform="matrix(.26458333 0 0 .26458333 0 229.26666)" d="m133.20898 240.28516h32.47657c2.71446 0 4.75433-0.14486 7.30078-0.17578l77.25-147.25782c-0.04315-7.650062-0.14136-14.94503-0.51172-21.236328-0.21691-3.684631-0.50107-7.146805-0.86523-10.40039-0.36417-3.253586-0.80843-6.298071-1.34571-9.146485-0.53727-2.848413-1.16609-5.501588-1.90234-7.970703-0.73626-2.469115-1.57992-4.75345-2.54102-6.86914-0.50798-1.118234-1.14243-2.066772-1.71875-3.091797l-108.14258 206.14844z" style="fill:#e6df15"/>
  <path transform="matrix(.26458333 0 0 .26458333 0 229.26666)" d="m172.98633 240.10938c6.13788-0.07453 12.38418-0.11601 17.59765-0.42188 3.68821-0.21638 7.15334-0.4999 10.41016-0.86328s6.30491-0.80554 9.15625-1.3418c1.59357-0.2997 2.98576-0.7025 4.45899-1.0625l35.39648-67.47656c0.10851-4.36526 0.31836-8.29291 0.31836-13.20117v-59.251956c0-1.352883-0.0805-2.327894-0.08789-3.638672l-77.25 147.25782z" style="fill:#66dd23"/>
  <path transform="matrix(.26458333 0 0 .26458333 0 229.26666)" d="m214.60938 236.41992c1.16277-0.28414 2.4292-0.51367 3.51953-0.83789 2.47174-0.735 4.75889-1.57554 6.87695-2.53515 2.11806-0.95962 4.06716-2.0399 5.85742-3.25 1.79027-1.21011 3.42179-2.55065 4.91016-4.03711 1.48837-1.48647 2.83312-3.11811 4.04492-4.90625 1.2118-1.78815 2.29086-3.73392 3.25195-5.84961 0.9611-2.1157 1.80476-4.40002 2.54102-6.86914 0.73625-2.46913 1.36507-5.12229 1.90234-7.97071 0.53728-2.84841 0.98154-5.8929 1.34571-9.14648 0.36416-3.25359 0.64832-6.71577 0.86523-10.40039 0.20359-3.45839 0.1853-7.81362 0.28125-11.67383l-35.39648 67.47656z" style="fill:#24f0ff"/>
  <path d="m22.048613 241.4375 4.40972 7.05557-4.40972 7.05553h3.527777l2.645833-4.2342 2.645834 4.2342h3.527776l-4.409719-7.05553 4.409719-7.05557h-3.527776l-2.645834 4.2342-2.645833-4.2342zm-14.111113 0h12.347224v1.7639l-7.9375 9.70137h7.9375v2.64583h-12.347224v-1.76386l7.9375-9.70141h-7.9375z" style="fill:#ffffff"/>
  <path transform="matrix(.13485389 0 0 .13485389 -4.9712557 261.01666)" d="M 361.9375,-212 C 507.2348,-212 528,-191.28677 528,-46.125 V 70.125 C 528,215.28618 507.2348,236 361.9375,236 H 214.0625 C 68.7652,236 48,215.28618 48,70.125 V -46.125 C 48,-191.28677 68.7652,-212 214.0625,-212 Z" clip-path="url(#clipPath1082-3-5)" style="fill:none;opacity:.4;stroke-linecap:round;stroke-linejoin:round;stroke-width:8;stroke:url(#linearGradient906)"/>
 </g>
</svg>

<svg xmlns="http://www.w3.org/2000/svg" xmlns:xlink="http://www.w3.org/1999/xlink" width="256" height="256" version="1.1" viewBox="0 0 67.73 67.73">
 <defs>
  <linearGradient id="linearGradient1013">
   <stop offset="0" style="stop-color:#ffffff"/>
   <stop style="stop-color:#ffffff;stop-opacity:0.09803922" offset=".125"/>
   <stop style="stop-color:#000000;stop-opacity:0.09803922" offset=".925"/>
   <stop offset="1" style="stop-color:#000000;stop-opacity:0.49803922"/>
  </linearGradient>
  <clipPath id="clipPath1082-3-5" clipPathUnits="userSpaceOnUse">
   <path d="M 361.9375,-212 C 507.2348,-212 528,-191.28677 528,-46.125 V 70.125 C 528,215.28618 507.2348,236 361.9375,236 H 214.0625 C 68.7652,236 48,215.28618 48,70.125 V -46.125 C 48,-191.28677 68.7652,-212 214.0625,-212 Z" style="fill:#8c59d9"/>
  </clipPath>
  <filter style="color-interpolation-filters:sRGB" id="filter4569-2" width="1.023" height="1.025" x="-.01" y="-.01">
   <feGaussianBlur stdDeviation="1.16"/>
  </filter>
  <filter style="color-interpolation-filters:sRGB" id="filter913" width="1.046" height="1.05" x="-.02" y="-.03">
   <feGaussianBlur stdDeviation="2.32"/>
  </filter>
  <linearGradient id="linearGradient906" x1="296" x2="296" y1="-212" y2="236" gradientUnits="userSpaceOnUse" xlink:href="#linearGradient1013"/>
 </defs>
 <g transform="translate(0,-229.26666)">
  <path style="opacity:0.2;filter:url(#filter913)" d="m 188.96876,45.999995 c 72.64865,0 83.03125,10.356615 83.03125,82.937505 v 58.125 c 0,72.58059 -10.3826,82.9375 -83.03125,82.9375 h -73.9375 C 42.382606,270 32.000006,259.64309 32.000006,187.0625 v -58.125 c 0,-72.58089 10.3826,-82.937505 83.031254,-82.937505 z" transform="matrix(0.26970778,0,0,0.26970778,-7.1289177,220.56049)"/>
  <path d="m 188.96876,43.999995 c 72.64865,0 83.03125,10.356615 83.03125,82.937505 v 58.125 c 0,72.58059 -10.3826,82.9375 -83.03125,82.9375 h -73.9375 C 42.382606,268 32.000006,257.64309 32.000006,185.0625 v -58.125 c 0,-72.58089 10.3826,-82.937505 83.031254,-82.937505 z" transform="matrix(0.26970778,0,0,0.26970778,-7.1289177,220.56049)" style="opacity:0.1;filter:url(#filter4569-2)"/>
  <path style="fill:#4f4f4f" d="m 23.895905,232.42763 c -9.797337,0 -15.3941297,0.69699 -18.5445167,3.84334 -3.150381,3.14634 -3.849657,8.73736 -3.849657,18.52555 v 15.67677 c 0,9.78815 0.699276,15.3792 3.849657,18.52555 3.150387,3.14636 8.7471787,3.84333 18.5445167,3.84333 h 19.94152 c 9.797339,0 15.394134,-0.69697 18.544517,-3.84333 3.150384,-3.14635 3.849659,-8.7374 3.849659,-18.52555 v -15.67677 c 0,-9.78819 -0.699275,-15.37921 -3.849659,-18.52555 -3.150383,-3.14635 -8.74718,-3.84334 -18.544517,-3.84334 z"/>
  <path style="opacity:0.2;fill:#131313" d="m 1.5017313,269.93387 v 0.53942 c 0,9.78815 0.699276,15.3792 3.849657,18.52555 3.150387,3.14636 8.7471787,3.84333 18.5445167,3.84333 h 19.94152 c 9.797339,0 15.394134,-0.69697 18.544517,-3.84333 3.150384,-3.14635 3.849659,-8.7374 3.849659,-18.52555 v -0.53942 c 0,9.78815 -0.699275,15.3792 -3.849659,18.52555 -3.150383,3.14636 -8.747178,3.84334 -18.544517,3.84334 h -19.94152 c -9.797338,0 -15.3941297,-0.69698 -18.5445167,-3.84334 -3.150381,-3.14635 -3.849657,-8.7374 -3.849657,-18.52555 z"/>
  <g transform="translate(-2.6171876e-7,0.23804265)">
   <path d="M 41.974217,232.17708 H 29.104167 L 2.2728738,283.27261 c 0.08347,0.34931 0.153825,0.72414 0.250735,1.04914 0.195683,0.65628 0.419444,1.26397 0.674856,1.82627 0.255412,0.56231 0.542332,1.07905 0.864342,1.55425 0.322,0.4752 0.67912,0.90857 1.074578,1.30351 0.395457,0.39495 0.829293,0.75146 1.305067,1.07302 0.475784,0.32158 0.993366,0.60826 1.556325,0.86331 0.56296,0.25504 1.171338,0.47843 1.828352,0.67381 0.6570042,0.19539 1.3626852,0.36304 2.1206022,0.50562 0.757928,0.14259 1.567942,0.26051 2.433646,0.35716 0.1546,0.0173 0.33604,0.025 0.49421,0.0409 l 31.63107,-60.23359 c -1.42486,-0.0556 -2.89097,-0.10007 -4.53244,-0.10901 z" style="opacity:0.2;fill:#f0f0f0"/>
   <path d="m 66.203797,254.26696 c -0.005,-2.27556 -0.0412,-4.36493 -0.14951,-6.20247 -0.0576,-0.97936 -0.13315,-1.89952 -0.22997,-2.76432 -0.0968,-0.8648 -0.21485,-1.67393 -0.35767,-2.43104 -0.14282,-0.75711 -0.31045,-1.46225 -0.50615,-2.11853 -0.19568,-0.65628 -0.41944,-1.26396 -0.67485,-1.82627 -0.25541,-0.56231 -0.54233,-1.07906 -0.86433,-1.55425 -0.322,-0.4752 -0.67912,-0.90856 -1.07459,-1.30352 -0.39546,-0.39494 -0.82929,-0.75146 -1.30507,-1.07301 -0.47577,-0.32158 -0.99336,-0.60827 -1.55632,-0.86331 -0.56296,-0.25504 -1.17134,-0.47843 -1.82835,-0.67382 -0.65701,-0.19538 -1.36269,-0.36303 -2.12061,-0.50562 -0.75792,-0.14258 -1.56794,-0.26051 -2.43364,-0.35715 -0.86569,-0.0966 -1.7871,-0.17189 -2.76744,-0.22946 -1.12997,-0.0664 -2.52186,-0.0671 -3.81397,-0.0913 l -31.55789,60.28917 c 0.67842,0.0658 1.35834,0.13066 2.10348,0.17442 1.96067,0.11513 4.15734,0.15885 6.61775,0.15885 h 20.03288 c 2.46041,0 4.65709,-0.0437 6.61775,-0.15885 0.98034,-0.0575 1.90175,-0.13281 2.76744,-0.22946 0.8657,-0.0967 1.67572,-0.21457 2.43364,-0.35715 0.75792,-0.14259 1.4636,-0.31024 2.12061,-0.50563 0.65701,-0.19537 1.26539,-0.41877 1.82835,-0.67381 0.56296,-0.25505 1.08055,-0.54173 1.55632,-0.86331 0.47578,-0.32155 0.90961,-0.67807 1.30507,-1.07302 0.39547,-0.39494 0.75259,-0.82831 1.07459,-1.3035 0.322,-0.4752 0.60892,-0.99194 0.86433,-1.55426 0.25541,-0.5623 0.47917,-1.16999 0.67485,-1.82626 0.1957,-0.65629 0.36333,-1.36142 0.50615,-2.11854 0.14282,-0.75711 0.26085,-1.56624 0.35767,-2.43104 0.0968,-0.86481 0.17229,-1.78497 0.22997,-2.76432 0.10824,-1.83753 0.14431,-3.92692 0.14951,-6.20247 z" style="opacity:0.1;fill:#ffffff"/>
  </g>
  <path style="fill:#f24c3d" d="M 241.35156 34.136719 C 240.83749 33.222403 240.38967 32.221936 239.81836 31.378906 C 238.60656 29.590768 237.26181 27.959116 235.77344 26.472656 C 234.28507 24.986192 232.65355 23.645653 230.86328 22.435547 C 229.07302 21.225441 227.12392 20.145166 225.00586 19.185547 C 222.8878 18.225928 220.60065 17.385394 218.12891 16.650391 C 216.12059 16.053193 213.90379 15.56986 211.64648 15.105469 L 93.521484 240.28516 L 133.20898 240.28516 L 241.35156 34.136719 z" transform="matrix(0.26458333,0,0,0.26458333,0,229.26666)"/>
  <path style="fill:#e6df15" d="M 133.20898 240.28516 L 165.68555 240.28516 C 168.40001 240.28516 170.43988 240.1403 172.98633 240.10938 L 250.23633 92.851562 C 250.19318 85.2015 250.09497 77.906532 249.72461 71.615234 C 249.5077 67.930603 249.22354 64.468429 248.85938 61.214844 C 248.49521 57.961258 248.05095 54.916773 247.51367 52.068359 C 246.9764 49.219946 246.34758 46.566771 245.61133 44.097656 C 244.87507 41.628541 244.03141 39.344206 243.07031 37.228516 C 242.56233 36.110282 241.92788 35.161744 241.35156 34.136719 L 133.20898 240.28516 z" transform="matrix(0.26458333,0,0,0.26458333,0,229.26666)"/>
  <path style="fill:#66dd23" d="M 172.98633 240.10938 C 179.12421 240.03485 185.37051 239.99337 190.58398 239.6875 C 194.27219 239.47112 197.73732 239.1876 200.99414 238.82422 C 204.25096 238.46084 207.29905 238.01868 210.15039 237.48242 C 211.74396 237.18272 213.13615 236.77992 214.60938 236.41992 L 250.00586 168.94336 C 250.11437 164.5781 250.32422 160.65045 250.32422 155.74219 L 250.32422 96.490234 C 250.32422 95.137351 250.24372 94.16234 250.23633 92.851562 L 172.98633 240.10938 z" transform="matrix(0.26458333,0,0,0.26458333,0,229.26666)"/>
  <path style="fill:#24f0ff" d="M 214.60938 236.41992 C 215.77215 236.13578 217.03858 235.90625 218.12891 235.58203 C 220.60065 234.84703 222.8878 234.00649 225.00586 233.04688 C 227.12392 232.08726 229.07302 231.00698 230.86328 229.79688 C 232.65355 228.58677 234.28507 227.24623 235.77344 225.75977 C 237.26181 224.2733 238.60656 222.64166 239.81836 220.85352 C 241.03016 219.06537 242.10922 217.1196 243.07031 215.00391 C 244.03141 212.88821 244.87507 210.60389 245.61133 208.13477 C 246.34758 205.66564 246.9764 203.01248 247.51367 200.16406 C 248.05095 197.31565 248.49521 194.27116 248.85938 191.01758 C 249.22354 187.76399 249.5077 184.30181 249.72461 180.61719 C 249.9282 177.1588 249.90991 172.80357 250.00586 168.94336 L 214.60938 236.41992 z" transform="matrix(0.26458333,0,0,0.26458333,0,229.26666)"/>
  <path style="fill:#ffffff" d="m 22.048613,241.4375 4.40972,7.05557 -4.40972,7.05553 h 3.527777 l 2.645833,-4.2342 2.645834,4.2342 h 3.527776 l -4.409719,-7.05553 4.409719,-7.05557 h -3.527776 l -2.645834,4.2342 -2.645833,-4.2342 z m -14.111113,0 h 12.347224 v 1.7639 l -7.9375,9.70137 h 7.9375 v 2.64583 H 7.9375 v -1.76386 l 7.9375,-9.70141 H 7.9375 Z"/>
  <path d="M 361.9375,-212 C 507.2348,-212 528,-191.28677 528,-46.125 V 70.125 C 528,215.28618 507.2348,236 361.9375,236 H 214.0625 C 68.7652,236 48,215.28618 48,70.125 V -46.125 C 48,-191.28677 68.7652,-212 214.0625,-212 Z" clip-path="url(#clipPath1082-3-5)" transform="matrix(0.13485389,0,0,0.13485389,-4.9712557,261.01666)" style="opacity:0.4;fill:none;stroke:url(#linearGradient906);stroke-width:8;stroke-linecap:round;stroke-linejoin:round"/>
 </g>
</svg>
